public/assets/images/service/11.svg

<svg width="60" height="60" viewBox="0 0 60 60" fill="none" xmlns="http://www.w3.org/2000/svg">
<path d="M8.76636 21.3301V47.8801H51.2344V21.3301C51.2344 20.1355 50.2654 19.1641 49.0744 19.1641H42.8314C42.6982 25.4701 39.4828 31.2421 34.1602 34.6639L30.325 37.1293C30.226 37.1929 30.1132 37.2247 30.0004 37.2247C29.8876 37.2247 29.7748 37.1929 29.6758 37.1293L25.8406 34.6639C20.5174 31.2415 17.3026 25.4695 17.1694 19.1641H10.9264C9.73596 19.1641 8.76636 20.1355 8.76636 21.3301ZM18.0352 39.6733H41.965C43.7242 39.6733 45.1546 41.1043 45.1546 42.8635C45.1546 44.6227 43.7236 46.0537 41.965 46.0537H18.0358C16.2766 46.0537 14.8462 44.6227 14.8462 42.8635C14.8462 41.1043 16.2766 39.6733 18.0352 39.6733Z" fill="#0F62FE"/>
<path d="M18.0353 44.8554H41.9651C43.0625 44.8554 43.9547 43.9626 43.9547 42.8652C43.9547 41.7678 43.0625 40.875 41.9651 40.875H18.0353C16.9379 40.875 16.0457 41.7678 16.0457 42.8652C16.0457 43.9626 16.9379 44.8554 18.0353 44.8554ZM41.2199 41.5626C41.9393 41.5626 42.5225 42.1458 42.5225 42.8652C42.5225 43.5846 41.9393 44.1678 41.2199 44.1678C40.5005 44.1678 39.9173 43.5846 39.9173 42.8652C39.9173 42.1458 40.5005 41.5626 41.2199 41.5626ZM35.6099 41.5626C36.3293 41.5626 36.9125 42.1458 36.9125 42.8652C36.9125 43.5846 36.3293 44.1678 35.6099 44.1678C34.8905 44.1678 34.3073 43.5846 34.3073 42.8652C34.3073 42.1458 34.8905 41.5626 35.6099 41.5626ZM29.9999 41.5626C30.7193 41.5626 31.3025 42.1458 31.3025 42.8652C31.3025 43.5846 30.7193 44.1678 29.9999 44.1678C29.2805 44.1678 28.6973 43.5846 28.6973 42.8652C28.6973 42.1458 29.2805 41.5626 29.9999 41.5626ZM24.3899 41.5626C25.1093 41.5626 25.6925 42.1458 25.6925 42.8652C25.6925 43.5846 25.1093 44.1678 24.3899 44.1678C23.6705 44.1678 23.0873 43.5846 23.0873 42.8652C23.0873 42.1458 23.6705 41.5626 24.3899 41.5626ZM18.7799 41.5626C19.4993 41.5626 20.0825 42.1458 20.0825 42.8652C20.0825 43.5846 19.4993 44.1678 18.7799 44.1678C18.0605 44.1678 17.4773 43.5846 17.4773 42.8652C17.4773 42.1458 18.0605 41.5626 18.7799 41.5626Z" fill="#0F62FE"/>
<path d="M26.4896 33.6553L30.0002 35.9125L33.5108 33.6553C38.6036 30.3817 41.6444 24.8131 41.6444 18.7591V10.6015L30.0008 7.01953L18.3572 10.6015V18.7591C18.3572 24.8131 21.3974 30.3817 26.4908 33.6553H26.4896ZM18.9566 11.4877C18.9566 11.2243 19.1282 10.9915 19.3802 10.9141L29.8238 7.70173C29.9384 7.66573 30.0614 7.66573 30.1766 7.70173L40.6202 10.9141C40.8722 10.9915 41.0438 11.2243 41.0438 11.4877V18.7591C41.0438 24.6079 38.1062 29.9881 33.1862 33.1507L30.3242 34.9903C30.2252 35.0539 30.1124 35.0857 29.9996 35.0857C29.8868 35.0857 29.774 35.0539 29.675 34.9903L26.813 33.1507C21.893 29.9881 18.9554 24.6079 18.9554 18.7591V11.4877H18.9566Z" fill="#0F62FE"/>
<path d="M52.4339 21.3294V47.8794H53.5319V19.1394C53.5319 17.7894 52.4309 16.6914 51.0779 16.6914H42.8435V17.9634H49.0739C50.9267 17.9634 52.4339 19.4736 52.4339 21.3294Z" fill="#0F62FE"/>
<path d="M27.4626 32.1409L30 33.7723L32.5374 32.1409C37.1124 29.1997 39.8442 24.1969 39.8442 18.7585V11.9305L30.0006 8.90234L20.157 11.9305V18.7585C20.157 24.1969 22.8888 29.1997 27.4638 32.1409H27.4626ZM30 27.0181C29.4744 27.0181 29.0484 26.5921 29.0484 26.0671C29.0484 25.5421 29.4744 25.1155 30 25.1155C30.5256 25.1155 30.951 25.5415 30.951 26.0671C30.951 26.5927 30.525 27.0181 30 27.0181ZM31.2984 17.4259L30.6 23.9623C30.5298 24.6703 29.4672 24.6661 29.4 23.9623L28.7016 17.4259C28.5756 15.5245 31.4238 15.5215 31.2984 17.4259Z" fill="#0F62FE"/>
<path d="M23.6186 50.4452H36.3806C37.2542 50.4452 37.9964 49.8722 38.2514 49.082H21.7478C22.0028 49.8722 22.745 50.4452 23.6186 50.4452Z" fill="#0F62FE"/>
<path d="M36.3809 51.6452H23.6189C22.0799 51.6452 20.7965 50.54 20.5139 49.082H4.20288V50.3696C4.20288 51.8246 5.38668 53.0084 6.84108 53.0084H53.1587C54.6137 53.0084 55.7969 51.8246 55.7969 50.3696V49.082H39.4853C39.2027 50.54 37.9205 51.6452 36.3809 51.6452Z" fill="#0F62FE"/>
<path d="M7.56553 21.3294C7.56553 19.4736 9.07273 17.9634 10.9255 17.9634H17.1559V16.6914H8.92153C7.56853 16.6914 6.46753 17.7894 6.46753 19.1394V47.8794H7.56553V21.3294Z" fill="#0F62FE"/>
</svg>

<svg xmlns="http://www.w3.org/2000/svg" width="60" height="60" fill="none" viewBox="0 0 60 60"><path fill="#0f62fe" d="M8.766 21.33v26.55h42.468V21.33a2.165 2.165 0 0 0-2.16-2.166h-6.243a18.82 18.82 0 0 1-8.67 15.5l-3.836 2.465a.6.6 0 0 1-.65 0l-3.834-2.465a18.82 18.82 0 0 1-8.672-15.5h-6.243c-1.19 0-2.16.971-2.16 2.166m9.27 18.343h23.929c1.76 0 3.19 1.431 3.19 3.19 0 1.76-1.431 3.19-3.19 3.19h-23.93a3.193 3.193 0 0 1-3.189-3.19c0-1.759 1.43-3.19 3.19-3.19"/><path fill="#0f62fe" d="M18.035 44.855h23.93c1.097 0 1.99-.892 1.99-1.99s-.892-1.99-1.99-1.99h-23.93c-1.097 0-1.99.893-1.99 1.99 0 1.098.893 1.99 1.99 1.99m23.185-3.292a1.303 1.303 0 1 1 0 2.605 1.303 1.303 0 0 1 0-2.605m-5.61 0a1.303 1.303 0 1 1 0 2.605 1.303 1.303 0 0 1 0-2.605m-5.61 0a1.303 1.303 0 1 1 0 2.605 1.303 1.303 0 0 1 0-2.605m-5.61 0a1.303 1.303 0 1 1 0 2.605 1.303 1.303 0 0 1 0-2.605m-5.61 0a1.303 1.303 0 1 1 0 2.605 1.303 1.303 0 0 1 0-2.605m7.71-7.908L30 35.913l3.51-2.258a17.64 17.64 0 0 0 8.134-14.896v-8.158L30.001 7.02l-11.644 3.582v8.157c0 6.054 3.04 11.623 8.134 14.896zm-7.533-22.167a.6.6 0 0 1 .423-.574l10.444-3.212a.6.6 0 0 1 .353 0l10.443 3.212a.6.6 0 0 1 .424.574v7.271a17.04 17.04 0 0 1-7.858 14.392l-2.862 1.84a.6.6 0 0 1-.649 0l-2.862-1.84a17.04 17.04 0 0 1-7.858-14.392v-7.271zm33.477 9.842v26.55h1.098V19.14a2.454 2.454 0 0 0-2.454-2.449h-8.235v1.272h6.23c1.854 0 3.36 1.51 3.36 3.366"/><path fill="#0f62fe" d="M27.463 32.14 30 33.773l2.537-1.631a15.85 15.85 0 0 0 7.307-13.382v-6.83l-9.843-3.029-9.844 3.029v6.828a15.85 15.85 0 0 0 7.307 13.382zM30 27.019a.951.951 0 1 1 0-1.903.951.951 0 0 1 0 1.903m1.298-9.592-.698 6.536c-.07.708-1.133.704-1.2 0l-.698-6.536c-.126-1.901 2.722-1.904 2.596 0m-7.679 33.018H36.38c.873 0 1.615-.573 1.87-1.363H21.748c.255.79.997 1.363 1.87 1.363"/><path fill="#0f62fe" d="M36.38 51.645H23.62a3.17 3.17 0 0 1-3.105-2.563H4.203v1.288a2.64 2.64 0 0 0 2.638 2.638H53.16a2.64 2.64 0 0 0 2.638-2.638v-1.288H39.485a3.17 3.17 0 0 1-3.104 2.563M7.566 21.33a3.367 3.367 0 0 1 3.36-3.367h6.23v-1.272H8.922a2.454 2.454 0 0 0-2.454 2.448v28.74h1.098z"/></svg>
